assets/svg/7zip.svg

<svg xmlns="http://www.w3.org/2000/svg" width="50.469" height="50" fill="none" viewBox="0 0 50.469 50"><defs><filter id="b" width="27.571" height="33.687" x="-1.257" y="6.46" color-interpolation-filters="sRGB" filterUnits="userSpaceOnUse"><feFlood flood-opacity="0" result="BackgroundImageFix"/><feBlend in="SourceGraphic" in2="BackgroundImageFix" result="shape"/><feGaussianBlur result="effect_layerBlur_1" stdDeviation="1.876"/></filter><filter id="c" width="26.799" height="33.613" x="-3.601" y="8.8" color-interpolation-filters="sRGB" filterUnits="userSpaceOnUse"><feFlood flood-opacity="0" result="BackgroundImageFix"/><feBlend in="SourceGraphic" in2="BackgroundImageFix" result="shape"/><feGaussianBlur result="effect_layerBlur_1" stdDeviation="1.876"/></filter><filter id="e" width="63.592" height="42.598" x="-5.385" y="2.035" color-interpolation-filters="sRGB" filterUnits="userSpaceOnUse"><feFlood flood-opacity="0" result="BackgroundImageFix"/><feBlend in="SourceGraphic" in2="BackgroundImageFix" result="shape"/><feGaussianBlur result="effect_layerBlur_1" stdDeviation="1.876"/></filter><filter id="f" width="63.6" height="42.6" x="-7.738" y="4.373" color-interpolation-filters="sRGB" filterUnits="userSpaceOnUse"><feFlood flood-opacity="0" result="BackgroundImageFix"/><feBlend in="SourceGraphic" in2="BackgroundImageFix" result="shape"/><feGaussianBlur result="effect_layerBlur_1" stdDeviation="1.876"/></filter><filter id="h" width="39.57" height="28.124" x="16.826" y="11.857" color-interpolation-filters="sRGB" filterUnits="userSpaceOnUse"><feFlood flood-opacity="0" result="BackgroundImageFix"/><feBlend in="SourceGraphic" in2="BackgroundImageFix" result="shape"/><feGaussianBlur result="effect_layerBlur_1" stdDeviation="1.856"/></filter><filter id="i" width="37.974" height="28.113" x="15.766" y="14.178" color-interpolation-filters="sRGB" filterUnits="userSpaceOnUse"><feFlood flood-opacity="0" result="BackgroundImageFix"/><feBlend in="SourceGraphic" in2="BackgroundImageFix" result="shape"/><feGaussianBlur result="effect_layerBlur_1" stdDeviation="1.856"/></filter><filter id="k" width="41.116" height="35.044" x="16.433" y="9.203" color-interpolation-filters="sRGB" filterUnits="userSpaceOnUse"><feFlood flood-opacity="0" result="BackgroundImageFix"/><feBlend in="SourceGraphic" in2="BackgroundImageFix" result="shape"/><feGaussianBlur result="effect_layerBlur_1" stdDeviation="1.856"/></filter><filter id="l" width="41.116" height="35.044" x="14.112" y="11.524" color-interpolation-filters="sRGB" filterUnits="userSpaceOnUse"><feFlood flood-opacity="0" result="BackgroundImageFix"/><feBlend in="SourceGraphic" in2="BackgroundImageFix" result="shape"/><feGaussianBlur result="effect_layerBlur_1" stdDeviation="1.856"/></filter></defs><path fill="#000" d="M.23 10v29h50V16.44H22.51V10z"/><path stroke="#000" stroke-width=".469" d="M.23 39h50V16.44H22.51V10H.23z"/><path fill="#fff" fill-rule="evenodd" d="M4.37 14.43h13.97v4.28c-3.65 4.44-5.95 9.56-6.16 15.72H7.4c.19-5.32.73-10.54 4.78-14.89H4.37z"/><path stroke="#000" stroke-width=".469" d="M18.34 14.43v4.28c-3.65 4.44-5.95 9.56-6.16 15.72H7.4c.19-5.32.73-10.54 4.78-14.89H4.37v-5.11z"/><mask id="a" width="13.971" height="20.013" x="4.37" y="14.426" mask-type="alpha" maskUnits="userSpaceOnUse"><path fill="#fff" d="M4.37 14.43h13.97v4.28c-3.65 4.44-5.95 9.56-6.16 15.72H7.4c.19-5.32.73-10.54 4.78-14.89H4.37z"/></mask><g mask="url(#a)"><g filter="url(#b)"><path stroke="#fff" stroke-width="4.689" d="M4.37 14.43h13.97v4.28c-3.65 4.44-5.95 9.56-6.16 15.72"/></g><g filter="url(#c)"><path stroke="#000" stroke-width="4.689" d="M12.18 34.44H7.4c.19-5.32.73-10.55 4.78-14.9H4.37v-5.12"/></g></g><mask id="d" width="50" height="29" x=".234" y="10" mask-type="alpha" maskUnits="userSpaceOnUse"><path fill="#fff" d="M.23 10v29h50V16.44H22.51V10z"/></mask><g mask="url(#d)"><g filter="url(#e)"><path stroke="#fff" stroke-width="4.689" d="M50.23 39V16.44H22.51V10H.24"/></g><g filter="url(#f)"><path stroke="#000" stroke-width="4.689" d="M.23 10v29h50"/></g></g><path fill="#fff" d="M49.65 17.09v21.58H22V17.09z"/><path stroke="#000" stroke-width=".464" d="M49.65 38.67H22V17.09h27.65z"/><path fill="#000" fill-rule="evenodd" d="M34.62 19.74v14.49h3.01V19.74zm-10.79.09v3.3h4.66l-4.84 7.98v3.21h8.87v-3.21h-5.67l5.85-8.34v-2.93zm16.54.01V34.4h3.29v-5.13h2.19c3.51-.01 3.6-9.54-.19-9.44zm3.11 3.12h1.28c1.43-.05 1.46 3.22 0 3.01l-1.19.1z"/><path stroke="#000" stroke-width=".464" d="M34.62 34.23h3.01V19.74h-3.01zm-10.79-11.1h4.66l-4.84 7.98v3.21h8.87v-3.21h-5.67l5.85-8.34v-2.93l-8.87-.01zM40.37 34.4h3.29v-5.13h2.19c3.51-.01 3.6-9.54-.19-9.44l-5.29.01zm4.39-11.44c1.43-.05 1.46 3.22 0 3.01l-1.19.1-.09-3.11z"/><mask id="g" width="24.842" height="14.662" x="23.656" y="19.747" mask-type="alpha" maskUnits="userSpaceOnUse"><path fill="#fff" d="M34.62 19.74v14.49h3.01V19.74zm-10.79.09v3.3h4.66l-4.84 7.98v3.21h8.87v-3.21h-5.67l5.85-8.34v-2.93zm16.54.01V34.4h3.29v-5.13h2.19c3.51-.01 3.6-9.54-.19-9.44zm3.11 3.12h1.28c1.43-.05 1.46 3.22 0 3.01l-1.19.1z"/></mask><g mask="url(#g)"><g filter="url(#h)"><path stroke="#fff" stroke-width="4.641" d="M37.63 34.23V19.74h-3.01m-2.1 14.58v-3.21h-5.67l5.85-8.34v-2.94h-8.86m19.83 14.58v-5.13m2.19 0c3.51-.02 3.6-9.55-.19-9.44h-5.29m4.39 6.13-1.19.1-.1-3.12"/></g><g filter="url(#i)"><path stroke="#000" stroke-width="4.641" d="M34.62 19.74v14.49h3.01m-13.8-14.41v3.31h4.66l-4.84 7.97v3.21h8.87m7.85-14.48V34.4h3.29m0-5.14h2.19m-2.37-6.31h1.28c1.43-.05 1.46 3.21 0 3.01"/></g></g><mask id="j" width="27.656" height="21.585" x="22.002" y="17.092" mask-type="alpha" maskUnits="userSpaceOnUse"><path fill="#fff" d="M49.65 17.09v21.58H22V17.09z"/></mask><g mask="url(#j)"><g filter="url(#k)"><path stroke="#fff" stroke-width="4.641" d="M49.65 38.67V17.09H22"/></g><g filter="url(#l)"><path stroke="#000" stroke-width="4.641" d="M49.65 38.67H22V17.09"/></g></g></svg>

<svg width="50.468750" height="50.000000" viewBox="0 0 50.4688 50" fill="none" xmlns="http://www.w3.org/2000/svg" xmlns:xlink="http://www.w3.org/1999/xlink">
	<desc>
			Created with Pixso.
	</desc>
	<defs>
		<filter id="filter_252_114_dd" x="-1.257324" y="6.460205" width="27.570801" height="33.687256" filterUnits="userSpaceOnUse" color-interpolation-filters="sRGB">
			<feFlood flood-opacity="0" result="BackgroundImageFix"/>
			<feBlend mode="normal" in="SourceGraphic" in2="BackgroundImageFix" result="shape"/>
			<feGaussianBlur stdDeviation="1.8758" result="effect_layerBlur_1"/>
		</filter>
		<filter id="filter_252_116_dd" x="-3.601074" y="8.799927" width="26.799316" height="33.612671" filterUnits="userSpaceOnUse" color-interpolation-filters="sRGB">
			<feFlood flood-opacity="0" result="BackgroundImageFix"/>
			<feBlend mode="normal" in="SourceGraphic" in2="BackgroundImageFix" result="shape"/>
			<feGaussianBlur stdDeviation="1.8758" result="effect_layerBlur_1"/>
		</filter>
		<filter id="filter_252_122_dd" x="-5.384766" y="2.034668" width="63.592041" height="42.597900" filterUnits="userSpaceOnUse" color-interpolation-filters="sRGB">
			<feFlood flood-opacity="0" result="BackgroundImageFix"/>
			<feBlend mode="normal" in="SourceGraphic" in2="BackgroundImageFix" result="shape"/>
			<feGaussianBlur stdDeviation="1.8758" result="effect_layerBlur_1"/>
		</filter>
		<filter id="filter_252_124_dd" x="-7.737793" y="4.372559" width="63.599609" height="42.599609" filterUnits="userSpaceOnUse" color-interpolation-filters="sRGB">
			<feFlood flood-opacity="0" result="BackgroundImageFix"/>
			<feBlend mode="normal" in="SourceGraphic" in2="BackgroundImageFix" result="shape"/>
			<feGaussianBlur stdDeviation="1.8758" result="effect_layerBlur_1"/>
		</filter>
		<filter id="filter_252_132_dd" x="16.826172" y="11.857056" width="39.569580" height="28.124146" filterUnits="userSpaceOnUse" color-interpolation-filters="sRGB">
			<feFlood flood-opacity="0" result="BackgroundImageFix"/>
			<feBlend mode="normal" in="SourceGraphic" in2="BackgroundImageFix" result="shape"/>
			<feGaussianBlur stdDeviation="1.85646" result="effect_layerBlur_1"/>
		</filter>
		<filter id="filter_252_134_dd" x="15.765869" y="14.177612" width="37.973877" height="28.112549" filterUnits="userSpaceOnUse" color-interpolation-filters="sRGB">
			<feFlood flood-opacity="0" result="BackgroundImageFix"/>
			<feBlend mode="normal" in="SourceGraphic" in2="BackgroundImageFix" result="shape"/>
			<feGaussianBlur stdDeviation="1.85646" result="effect_layerBlur_1"/>
		</filter>
		<filter id="filter_252_140_dd" x="16.432861" y="9.202515" width="41.115723" height="35.044434" filterUnits="userSpaceOnUse" color-interpolation-filters="sRGB">
			<feFlood flood-opacity="0" result="BackgroundImageFix"/>
			<feBlend mode="normal" in="SourceGraphic" in2="BackgroundImageFix" result="shape"/>
			<feGaussianBlur stdDeviation="1.85646" result="effect_layerBlur_1"/>
		</filter>
		<filter id="filter_252_142_dd" x="14.112305" y="11.523926" width="41.115723" height="35.044434" filterUnits="userSpaceOnUse" color-interpolation-filters="sRGB">
			<feFlood flood-opacity="0" result="BackgroundImageFix"/>
			<feBlend mode="normal" in="SourceGraphic" in2="BackgroundImageFix" result="shape"/>
			<feGaussianBlur stdDeviation="1.85646" result="effect_layerBlur_1"/>
		</filter>
	</defs>
	<g opacity="0.000000">
		<rect id="Прямоугольник 42" x="0.234375" width="50.000000" height="50.000000" fill="#C4C4C4" fill-opacity="1.000000"/>
	</g>
	<path id="path" d="M0.23 10L0.23 39L21.59 39L22.51 39L50.23 39L50.23 16.44L22.51 16.44L22.51 10L0.23 10Z" fill="#000000" fill-opacity="1.000000" fill-rule="nonzero"/>
	<path id="path" d="M0.23 39L21.59 39L22.51 39L50.23 39L50.23 16.44L22.51 16.44L22.51 10L0.23 10L0.23 39Z" stroke="#000000" stroke-opacity="1.000000" stroke-width="0.468949"/>
	<path id="path" d="M4.37 14.43L18.34 14.43L18.34 18.71C14.69 23.15 12.39 28.27 12.18 34.43L7.4 34.43C7.59 29.11 8.13 23.89 12.18 19.54L4.37 19.54L4.37 14.43Z" fill="#FFFFFF" fill-opacity="1.000000" fill-rule="evenodd"/>
	<path id="path" d="M18.34 14.43L18.34 18.71C14.69 23.15 12.39 28.27 12.18 34.43L7.4 34.43C7.59 29.11 8.13 23.89 12.18 19.54L4.37 19.54L4.37 14.43L18.34 14.43Z" stroke="#000000" stroke-opacity="1.000000" stroke-width="0.468949"/>
	<mask id="mask252_112" mask-type="alpha" maskUnits="userSpaceOnUse" x="4.370117" y="14.425781" width="13.971191" height="20.013062">
		<path id="path" d="M4.37 14.43L18.34 14.43L18.34 18.71C14.69 23.15 12.39 28.27 12.18 34.43L7.4 34.43C7.59 29.11 8.13 23.89 12.18 19.54L4.37 19.54L4.37 14.43Z" fill="#FFFFFF" fill-opacity="1.000000" fill-rule="nonzero"/>
	</mask>
	<g mask="url(#mask252_112)">
		<g filter="url(#filter_252_114_dd)">
			<path id="path" d="" fill="#000000" fill-opacity="0" fill-rule="nonzero"/>
			<path id="path" d="M4.37 14.43L18.34 14.43L18.34 18.71C14.69 23.15 12.39 28.27 12.18 34.43" stroke="#FFFFFF" stroke-opacity="1.000000" stroke-width="4.689490"/>
		</g>
		<g filter="url(#filter_252_116_dd)">
			<path id="path" d="" fill="#000000" fill-opacity="0" fill-rule="nonzero"/>
			<path id="path" d="M12.18 34.44L7.4 34.44C7.59 29.12 8.13 23.89 12.18 19.54L4.37 19.54L4.37 14.42" stroke="#000000" stroke-opacity="1.000000" stroke-width="4.689490"/>
		</g>
	</g>
	<mask id="mask252_120" mask-type="alpha" maskUnits="userSpaceOnUse" x="0.234375" y="10.000000" width="50.000000" height="29.000000">
		<path id="path" d="M0.23 10L0.23 39L21.59 39L22.51 39L50.23 39L50.23 16.44L22.51 16.44L22.51 10L0.23 10Z" fill="#FFFFFF" fill-opacity="1.000000" fill-rule="nonzero"/>
	</mask>
	<g mask="url(#mask252_120)">
		<g filter="url(#filter_252_122_dd)">
			<path id="path" d="" fill="#000000" fill-opacity="0" fill-rule="nonzero"/>
			<path id="path" d="M50.23 39L50.23 16.44L22.51 16.44L22.51 10L0.24 10" stroke="#FFFFFF" stroke-opacity="1.000000" stroke-width="4.689490"/>
		</g>
		<g filter="url(#filter_252_124_dd)">
			<path id="path" d="" fill="#000000" fill-opacity="0" fill-rule="nonzero"/>
			<path id="path" d="M0.23 10L0.23 39L50.23 39" stroke="#000000" stroke-opacity="1.000000" stroke-width="4.689490"/>
		</g>
	</g>
	<path id="path" d="M49.65 17.09L49.65 38.67L22 38.67L22 17.09L49.65 17.09Z" fill="#FFFFFF" fill-opacity="1.000000" fill-rule="nonzero"/>
	<path id="path" d="M49.65 38.67L22 38.67L22 17.09L49.65 17.09L49.65 38.67Z" stroke="#000000" stroke-opacity="1.000000" stroke-width="0.464114"/>
	<path id="path" d="M34.62 19.74L34.62 34.23L37.63 34.23L37.63 19.74L34.62 19.74ZM23.83 19.83L23.83 23.13L28.49 23.13L23.65 31.11L23.65 34.32L32.52 34.32L32.52 31.11L26.85 31.11L32.7 22.77L32.7 19.84L23.83 19.83ZM40.37 19.84L40.37 34.4L43.66 34.4L43.66 29.27L45.85 29.27C49.36 29.26 49.45 19.73 45.66 19.83L40.37 19.84ZM43.48 22.96L44.76 22.96C46.19 22.91 46.22 26.18 44.76 25.97L43.57 26.07L43.48 22.96Z" fill="#000000" fill-opacity="1.000000" fill-rule="evenodd"/>
	<path id="path" d="M34.62 34.23L37.63 34.23L37.63 19.74L34.62 19.74L34.62 34.23ZM23.83 23.13L28.49 23.13L23.65 31.11L23.65 34.32L32.52 34.32L32.52 31.11L26.85 31.11L32.7 22.77L32.7 19.84L23.83 19.83L23.83 23.13ZM40.37 34.4L43.66 34.4L43.66 29.27L45.85 29.27C49.36 29.26 49.45 19.73 45.66 19.83L40.37 19.84L40.37 34.4ZM44.76 22.96C46.19 22.91 46.22 26.18 44.76 25.97L43.57 26.07L43.48 22.96L44.76 22.96Z" stroke="#000000" stroke-opacity="1.000000" stroke-width="0.464114"/>
	<mask id="mask252_130" mask-type="alpha" maskUnits="userSpaceOnUse" x="23.656494" y="19.746948" width="24.842041" height="14.662109">
		<path id="path" d="M34.62 19.74L34.62 34.23L37.63 34.23L37.63 19.74L34.62 19.74ZM23.83 19.83L23.83 23.13L28.49 23.13L23.65 31.11L23.65 34.32L32.52 34.32L32.52 31.11L26.85 31.11L32.7 22.77L32.7 19.84L23.83 19.83ZM40.37 19.84L40.37 34.4L43.66 34.4L43.66 29.27L45.85 29.27C49.36 29.26 49.45 19.73 45.66 19.83L40.37 19.84ZM43.48 22.96L44.76 22.96C46.19 22.91 46.22 26.18 44.76 25.97L43.57 26.07L43.48 22.96Z" fill="#FFFFFF" fill-opacity="1.000000" fill-rule="nonzero"/>
	</mask>
	<g mask="url(#mask252_130)">
		<g filter="url(#filter_252_132_dd)">
			<path id="path" d="" fill="#000000" fill-opacity="0" fill-rule="nonzero"/>
			<path id="path" d="M37.63 34.23L37.63 19.74L34.62 19.74M32.52 34.32L32.52 31.11L26.85 31.11L32.7 22.77L32.7 19.83L23.84 19.83M43.67 34.41L43.67 29.28M45.86 29.28C49.37 29.26 49.46 19.73 45.67 19.84L40.38 19.84M44.77 25.97L43.58 26.07L43.48 22.95" stroke="#FFFFFF" stroke-opacity="1.000000" stroke-width="4.641140"/>
		</g>
		<g filter="url(#filter_252_134_dd)">
			<path id="path" d="" fill="#000000" fill-opacity="0" fill-rule="nonzero"/>
			<path id="path" d="M34.62 19.74L34.62 34.23L37.63 34.23M23.83 19.82L23.83 23.13L28.49 23.13L23.65 31.1L23.65 34.31L32.52 34.31M40.37 19.83L40.37 34.4L43.66 34.4M43.66 29.26L45.85 29.26M43.48 22.95L44.76 22.95C46.19 22.9 46.22 26.16 44.76 25.96" stroke="#000000" stroke-opacity="1.000000" stroke-width="4.641140"/>
		</g>
	</g>
	<mask id="mask252_138" mask-type="alpha" maskUnits="userSpaceOnUse" x="22.002197" y="17.092407" width="27.656494" height="21.585205">
		<path id="path" d="M49.65 17.09L49.65 38.67L22 38.67L22 17.09L49.65 17.09Z" fill="#FFFFFF" fill-opacity="1.000000" fill-rule="nonzero"/>
	</mask>
	<g mask="url(#mask252_138)">
		<g filter="url(#filter_252_140_dd)">
			<path id="path" d="" fill="#000000" fill-opacity="0" fill-rule="nonzero"/>
			<path id="path" d="M49.65 38.67L49.65 17.09L22 17.09" stroke="#FFFFFF" stroke-opacity="1.000000" stroke-width="4.641140"/>
		</g>
		<g filter="url(#filter_252_142_dd)">
			<path id="path" d="" fill="#000000" fill-opacity="0" fill-rule="nonzero"/>
			<path id="path" d="M49.65 38.67L22 38.67L22 17.09" stroke="#000000" stroke-opacity="1.000000" stroke-width="4.641140"/>
		</g>
	</g>
</svg>
